X: 8110
T: Continental
R: waltz
M: 3/4
K: Dmajor
|:A,2|D4A2|F4A2|D4A2|F4A2|f2e2d2|c2d3B|A6|
A2F2D2|C4 A2|G4A2|F4A2|D4F2|E2F2D2|C2D2B,2|A,6|
A,2B,2C2|D4A2|F4A2|D4A2|F4A2|f2e2d2|c2d3B|A6|
A2G2F2|G2B2e2|E4G2|F2A2d2|A4G2|(3FGF (3EFE D2|C2F2E2|D6|D4A2:|
d4f2|A2d2f2|a2f2d2|A2F2D2|A,2D2F2|A2F2d2|A4 A2|A2ABcd|e6|
A2e2g2|b2g2e2|A2F2D2|A,2C2E2|F6|(3ABA ^GABc|d4f2|
A2d2f2|a2f2d2|A2F2D2|A,2D2F2|A2F2d2|A6|
A2G2F2|G2B2e2|E4G2|F2A2d2|A4G2|(3FGF E2D2|C2F2E2|D6||

